X:48
T:Gigue du Diamant Bleu
M:4/4
L:1/8
K:D
ag | fded fdef | gbaf e2ag | fded fdef | gbaf d2ag |
fded fdef | gbaf e2ag | fded fdef | gbaf d2Ad ||
fded fded | BdAd BdAd | fded fded | cABc d2Ad |
fded fded | BdAd BdAd | fded fded | cABc d2 (3ABc ||
dcdA fAfA | gAgA fAfA | dcdA fAfA | eABc d2(3ABc |
dcdA fAfA | gAgA fAfA | dcdA fAfA | eABc d4 |]

